X:1
T:Title
%%score { ( 1 3 ) | ( 2 4 ) }
L:1/8
M:6/8
K:Db
V:1 treble nm="Grand Piano"
V:3 treble 
V:2 bass 
V:4 bass 
V:1
 z3 z2[Q:1/4=81] [DF]/[EG]/ | [FA]>[_F=G][=FA] [Fd]FB | ADG F2 F | [CE]>[DF][EG] [FA][GB][Gc] | %4
[M:5/8] [_FB]3 [=FA] z |[M:1/8] [DF]/[EG]/ |[M:3/4] [FA]>[_F=G] [=FA][Fd] FB | AD G F2 F | %8
 E=G Bd cB |[M:5/8] [CA]- [CA]3 z |[M:1/8] A |[M:3/4] [Ac]>[GB] [FA]G FG | [GB][FA] [EG] F2 F | %13
 EA c[=Ge] [Gd][DEB] | [CA]6 |[M:1/8] [CGA] |[M:3/4] [FA]>[GB] [FA][DF] [EG][FA] | %17
 [Fd]>[Fe] [Fd] B2 B | AF d[Ec]- [Ec]/[Fd]/[Ge] |[M:5/8] [Fd]- [Fd]3 z |] %20
V:2
 z3 z2 [D,A,]/[D,A,]/ | [D,D]>[D,D][D,D] [D,A,][D,A,D][D,G,] | %2
 [D,F,D][D,F,][D,B,D] [D,A,D]2 [D,A,D] | [A,,A,]>[A,,A,][A,,A,] [A,,A,][A,,A,][A,,A,] | %4
[M:5/8] [D,=G,]3 [D,A,] z |[M:1/8] [D,A,] |[M:3/4] [D,D]>[D,D] [D,D][D,A,] [D,A,D][D,G,D] | %7
 [D,F,D][D,F,] [D,B,D] [D,A,D]2 [D,A,D] | [E,=G,D][E,B,D] [E,G,D][E,G,F] [E,G,E][E,G,D] | %9
[M:5/8] [A,,A,]- [A,,A,]3 z |[M:1/8] [A,,A,] |[M:3/4] [A,,A,]>[A,,A,] [A,,A,][A,E] [A,=D][A,CE] | %12
 [D,D][D,D] [D,A,] [D,A,D]2 [D,A,D] | [E,A,C][E,A,C] [E,A,E][E,B,] [E,B,]E, | z2 z[K:treble] G3 | %15
[M:1/8] A, |[M:3/4][K:bass] [D,D]>[D,D] [D,D][D,A,] [D,A,][D,D] | %17
 [D,_C]>[D,C] [D,C] [G,B,D]2[K:treble] [G,DG] | %18
 [A,DF][A,D] [A,F][K:bass][A,,A,]- [A,,A,]/[A,,A,]/[A,,A,] |[M:5/8] [D,A,]- [D,A,]3 z |] %20
V:3
 x6 | x6 | x6 | x6 |[M:5/8] x5 |[M:1/8] x |[M:3/4] x6 | x6 | x6 |[M:5/8] x5 |[M:1/8] x | %11
[M:3/4] x6 | x6 | x6 | E4 z2 |[M:1/8] x |[M:3/4] x6 | x6 | x6 |[M:5/8] x5 |] %20
V:4
 x6 | x6 | x6 | x6 |[M:5/8] x5 |[M:1/8] x |[M:3/4] x6 | x6 | x6 |[M:5/8] x5 |[M:1/8] x | %11
[M:3/4] x6 | x6 | x6 | A,,6[K:treble] |[M:1/8] x |[M:3/4][K:bass] x6 | x5[K:treble] x | %18
 x3[K:bass] x3 |[M:5/8] x5 |] %20

